dist/svgs/devui-icons/op/go-email.svg

<?xml version="1.0" encoding="UTF-8"?>
<svg width="16px" height="16px" viewBox="0 0 16 16" version="1.1" xmlns="http://www.w3.org/2000/svg" xmlns:xlink="http://www.w3.org/1999/xlink">
    <title>操作/邮件</title>
    <desc>Created with Sketch.</desc>
    <g id="操作/邮件" stroke="none" stroke-width="1" fill="none" fill-rule="evenodd">
        <g id="邮件" fill="#293040">
            <path d="M15.7990019,2.39857637 L8,9.33102252 L0.200998073,2.39857637 C0.383503958,2.15649693 0.673476071,2 1,2 L15,2 C15.3265239,2 15.616496,2.15649693 15.7990019,2.39857637 L15.7990019,2.39857637 Z M16,3.55786637 L16,13 C16,13.0210842 15.9993475,13.0420161 15.9980615,13.0627764 L11.3796283,7.67460431 L11.3796283,7.66486343 L16,3.55786637 Z M15.4094191,13.9126176 C15.284457,13.9687648 15.1458762,14 15,14 L1,14 C0.854123835,14 0.715543044,13.9687648 0.590580909,13.9126176 L5.37264114,8.33354738 L8,10.6689775 L10.6273589,8.33354738 L15.4094191,13.9126176 L15.4094191,13.9126176 Z M0.00193845845,13.0627764 C0.000652516993,13.0420161 0,13.0210842 0,13 L0,3.55786637 L4.62496876,7.66894971 L4.6203717,7.67460431 L0.00193845845,13.0627764 L0.00193845845,13.0627764 Z" id="形状"></path>
        </g>
    </g>
</svg>

<svg xmlns="http://www.w3.org/2000/svg" viewBox="0 0 16 16"><path fill-rule="evenodd" d="M15.799 2.399L8 9.33.201 2.399A.998.998 0 011 2h14c.327 0 .616.156.799.399zM16 3.558V13c0 .021 0 .042-.002.063L11.38 7.675v-.01L16 3.558zm-.59 10.355A.996.996 0 0115 14H1a.996.996 0 01-.41-.087l4.783-5.58L8 10.67l2.627-2.335 4.782 5.579zm-15.408-.85A1.015 1.015 0 010 13V3.558l4.625 4.11-.005.007-4.618 5.388z"/></svg>
